src/lib/packages/icons/src/assets/filled/comment-check.svg

<svg width="24" height="24" viewBox="0 0 24 24" fill="none" xmlns="http://www.w3.org/2000/svg">
<path d="M21 12.001C21 12.342 20.98 12.667 20.947 12.985C20.918 13.215 20.7 13.293 20.574 13.252C19.819 13.004 18.9911 12.932 18.1311 13.074C15.7591 13.465 13.993 15.616 14 18.02C14.002 18.514 14.073 18.988 14.209 19.439C14.261 19.613 14.1641 19.797 13.9851 19.83C13.3461 19.946 12.68 20.004 11.999 20.004C10.719 20.004 9.50894 19.804 8.40894 19.424C7.06894 20.854 4.87898 21.044 3.45898 20.994C3.02898 20.984 2.83895 20.4341 3.16895 20.1541C4.25895 19.2741 4.79897 18.174 4.94897 17.213C3.72897 15.893 2.99902 14.123 2.99902 12.002C2.99902 7.00095 7.02902 4.00098 11.999 4.00098C16.969 4.00098 21 6.99998 21 12.001ZM18.197 20.53L21.53 17.197C21.823 16.904 21.823 16.429 21.53 16.136C21.237 15.843 20.762 15.843 20.469 16.136L17.666 18.939L16.5291 17.803C16.2361 17.51 15.761 17.51 15.468 17.803C15.175 18.096 15.175 18.571 15.468 18.864L17.135 20.531C17.281 20.677 17.473 20.751 17.665 20.751C17.857 20.751 18.051 20.677 18.197 20.53Z" fill="currentColor"/>
</svg>

<svg xmlns="http://www.w3.org/2000/svg" width="24" height="24" fill="none"><path fill="currentColor" d="M21 12.001c0 .341-.02.666-.053.984a.303.303 0 0 1-.373.267 5.114 5.114 0 0 0-2.443-.178c-2.372.391-4.138 2.542-4.131 4.946.002.494.073.968.209 1.419.052.174-.045.358-.224.391-.639.116-1.305.174-1.986.174-1.28 0-2.49-.2-3.59-.58-1.34 1.43-3.53 1.62-4.95 1.57-.43-.01-.62-.56-.29-.84 1.09-.88 1.63-1.98 1.78-2.941-1.22-1.32-1.95-3.09-1.95-5.211 0-5.001 4.03-8.001 9-8.001S21 7 21 12.001Zm-2.803 8.529 3.333-3.333a.75.75 0 1 0-1.061-1.061l-2.803 2.803-1.137-1.136a.75.75 0 0 0-1.061 1.061l1.667 1.667a.748.748 0 0 0 1.062-.001Z"/></svg>
